icons/themes/default/tag.svg

<svg viewBox="0 0 16 16" fill="none" xmlns="http://www.w3.org/2000/svg">
<path fill-rule="evenodd" clip-rule="evenodd" d="M4.23001 3.83984C3.89053 3.83984 3.56496 3.9747 3.32492 4.21475C3.08487 4.45479 2.95001 4.78037 2.95001 5.11984V10.8998C2.95001 11.2393 3.08487 11.5649 3.32492 11.8049C3.56496 12.045 3.89053 12.1798 4.23001 12.1798L11.149 12.1798C11.1489 12.1798 11.1492 12.1798 11.149 12.1798C11.2069 12.1797 11.2644 12.1666 11.3165 12.1417C11.3688 12.1167 11.4148 12.0804 11.4512 12.0354M11.4512 12.0354L14.707 8.00984L11.4514 3.98444C11.4514 3.98443 11.4514 3.98446 11.4514 3.98444C11.3757 3.89097 11.2681 3.83984 11.15 3.83984H4.23001M2.61781 3.50764C3.04539 3.08006 3.62532 2.83984 4.23001 2.83984H11.15C11.5719 2.83984 11.9643 3.02875 12.2286 3.35524L15.7388 7.69543C15.8871 7.8788 15.8871 8.14088 15.7388 8.32426L12.2288 12.6643C12.0988 12.8249 11.9344 12.9547 11.748 13.0438C11.5616 13.133 11.3576 13.1794 11.151 13.1798L4.23001 13.1798C3.62532 13.1798 3.04539 12.9396 2.61781 12.512C2.19023 12.0845 1.95001 11.5045 1.95001 10.8998V5.11984C1.95001 4.51515 2.19023 3.93522 2.61781 3.50764Z" fill="currentColor"/>
</svg>

<svg xmlns="http://www.w3.org/2000/svg" fill="none" viewBox="0 0 16 16">
  <path fill="currentColor" fill-rule="evenodd" d="M4.23 3.84a1.28 1.28 0 0 0-1.28 1.28v5.78a1.28 1.28 0 0 0 1.28 1.28h6.919a.391.391 0 0 0 .302-.145m0 0 3.256-4.025-3.256-4.026a.382.382 0 0 0-.301-.144H4.23m-1.612-.332A2.28 2.28 0 0 1 4.23 2.84h6.92c.422 0 .814.189 1.079.515l3.51 4.34a.5.5 0 0 1 0 .63l-3.51 4.34a1.39 1.39 0 0 1-1.078.515H4.23a2.28 2.28 0 0 1-2.28-2.28V5.12c0-.605.24-1.185.668-1.612Z" clip-rule="evenodd"/>
</svg>
